dist/img/icons/specialty/4.svg

<svg width="64" height="64" viewBox="0 0 64 64" fill="none" xmlns="http://www.w3.org/2000/svg">
<path d="M64 47.6875V45.8125H54.4614C55.6797 44.6206 56.4375 42.96 56.4375 41.125C56.4375 37.5063 53.4937 34.5625 49.875 34.5625H0V36.4375H2.4375V45.8125H0V47.6875H3.61426C1.45703 49.3457 0.0625 51.9497 0.0625 54.875C0.0625 59.8721 4.12793 63.9375 9.125 63.9375H64V62.0625H60.3125V47.6875H64ZM4.3125 43.9375H45.75V42.0625H4.3125V40.1875H45.75V38.3125H4.3125V36.4375H49.875C52.46 36.4375 54.5625 38.54 54.5625 41.125C54.5625 43.71 52.46 45.8125 49.875 45.8125H4.3125V43.9375ZM58.4375 50.104H9.125V51.979H12.1875V60.8999L18.3125 57.8008L24.4375 60.8999V51.979H58.4375V55.5205H33.75V57.3955H58.4375V62.0625H9.125C5.16162 62.0625 1.9375 58.8379 1.9375 54.875C1.9375 50.9116 5.16162 47.6875 9.125 47.6875H58.4375V50.104ZM22.5625 51.979V57.8501L18.3125 55.6992L14.0625 57.8501V51.979H22.5625Z" fill="#F1B08D"/>
<path d="M27.4023 8.55518C28.9551 8.55518 30.4502 8.97998 31.7266 9.7832L32.2261 10.0977L32.7256 9.7832C34.0015 8.97998 35.4966 8.55518 37.0493 8.55518C41.2134 8.55518 45.6636 10.9907 45.6636 17.8262C45.6636 19.1157 45.501 20.4487 45.1802 21.7876L47.0039 22.2236C47.3584 20.7422 47.5386 19.2627 47.5386 17.8262C47.5386 14.3765 46.4746 11.5029 44.4619 9.5166C42.6089 7.6875 39.9766 6.68018 37.0493 6.68018C35.4653 6.68018 33.9272 7.04297 32.5483 7.73389C31.3511 4.49072 28.7651 1.89795 25.4897 0.70752L24.8496 2.47021C27.147 3.30469 29.041 4.95996 30.1914 7.06787C29.2949 6.81201 28.3569 6.68066 27.4023 6.68066C27.4023 6.68066 27.4023 6.68066 27.4019 6.68066C23.9819 6.68066 21.063 8.00977 19.1836 10.4233L20.6631 11.5752C22.1797 9.62793 24.5728 8.55518 27.4023 8.55518Z" fill="#F1B08D"/>
<path d="M27.4019 33.0688C28.0713 33.0688 28.77 32.9077 29.4795 32.5908C30.3511 32.2007 31.2749 32.0029 32.2256 32.0029C33.1758 32.0029 34.0996 32.2007 34.9712 32.5908C35.6807 32.9077 36.3794 33.0688 37.0488 33.0688C40.8872 33.0688 44.5786 29.5532 46.4531 24.1128L44.6807 23.502C43.0952 28.1025 40.0283 31.1934 37.0488 31.1934C36.6396 31.1934 36.2104 31.0908 35.7368 30.8789C34.6226 30.3809 33.4409 30.1279 32.2256 30.1279C31.0093 30.1279 29.8276 30.3809 28.7139 30.8789C28.2402 31.0903 27.811 31.1934 27.4019 31.1934C22.6304 31.1934 18.7881 23.8809 18.7881 17.8262C18.7881 15.9873 19.1226 14.3628 19.7827 12.9976L18.0952 12.1812C17.3105 13.8027 16.9131 15.7021 16.9131 17.8262C16.9131 21.3496 17.9858 25.0645 19.856 28.0186C21.918 31.2749 24.5977 33.0688 27.4019 33.0688Z" fill="#F1B08D"/>
<path d="M38.1221 2.76169C41.603 1.13083 46.5718 2.16355 48.6558 2.71872C48.1699 3.7695 47.2568 5.54685 45.9683 7.22556L47.4556 8.36716C49.6074 5.56394 50.7642 2.57859 50.8125 2.4531L51.1606 1.54392L50.2397 1.22995C49.9258 1.12302 42.501 -1.36038 37.3271 1.06296C36.1567 1.61081 35.1172 2.40476 34.2363 3.42429L35.6553 4.65036C36.3623 3.832 37.1919 3.19675 38.1221 2.76169Z" fill="#F1B08D"/>
<path d="M23.5239 0.181152C22.8604 0.0639649 22.1792 0.00292969 21.5 0L21.4922 1.875C22.0649 1.87744 22.6387 1.92871 23.1973 2.02734L23.5239 0.181152Z" fill="#F1B08D"/>
<path d="M30 55.5205H31.875V57.3955H30V55.5205Z" fill="#F1B08D"/>
<path d="M26.25 55.5205H28.125V57.3955H26.25V55.5205Z" fill="#F1B08D"/>
<path d="M47.625 38.3125H49.5V40.1875H47.625V38.3125Z" fill="#F1B08D"/>
<path d="M47.625 42.0625H49.5V43.9375H47.625V42.0625Z" fill="#F1B08D"/>
<path d="M20.6631 17.8262H22.5381C22.5381 15.5923 23.1558 14.0181 24.375 13.1475L23.2852 11.6216C21.5454 12.8647 20.6631 14.9521 20.6631 17.8262Z" fill="#F1B08D"/>
<path d="M25.7656 12.5078C26.2598 12.375 26.8032 12.3071 27.3813 12.3052L27.3765 10.4302C26.6362 10.4326 25.9302 10.522 25.2793 10.6968L25.7656 12.5078Z" fill="#F1B08D"/>
<path d="M37.1016 27.4419L37.2144 29.3135C37.9399 29.27 38.6836 28.9458 39.4253 28.3496L38.2515 26.8877C37.8306 27.2261 37.4224 27.4229 37.1016 27.4419Z" fill="#F1B08D"/>
<path d="M43.7876 17.8262H41.9126C41.9126 21.1328 40.5996 24.0586 39.3711 25.6943L40.8706 26.8203C42.6699 24.4243 43.7876 20.978 43.7876 17.8262Z" fill="#F1B08D"/>
</svg>

<svg width="64" height="64" fill="none" xmlns="http://www.w3.org/2000/svg"><path d="M64 47.688v-1.876h-9.539a6.54 6.54 0 001.977-4.687 6.57 6.57 0 00-6.563-6.563H0v1.876h2.438v9.374H0v1.876h3.614a9.052 9.052 0 00-3.551 7.187c0 4.997 4.065 9.063 9.062 9.063H64v-1.876h-3.688V47.688H64zm-59.688-3.75H45.75v-1.876H4.312v-1.874H45.75v-1.876H4.312v-1.874h45.563a4.692 4.692 0 014.688 4.687 4.692 4.692 0 01-4.688 4.688H4.312v-1.876zm54.126 6.166H9.124v1.875h3.063v8.92l6.124-3.098 6.125 3.099v-8.921h34v3.541H33.75v1.875h24.688v4.667H9.124c-3.963 0-7.188-3.224-7.188-7.187a7.195 7.195 0 017.188-7.188h49.313v2.417zm-35.876 1.875v5.871l-4.25-2.15-4.25 2.15v-5.87h8.5zm4.84-43.424a8.1 8.1 0 014.325 1.228l.5.315.499-.315a8.097 8.097 0 014.323-1.228c4.164 0 8.615 2.436 8.615 9.271 0 1.29-.163 2.623-.484 3.962l1.824.436c.354-1.482.535-2.961.535-4.398 0-3.45-1.064-6.323-3.077-8.31-1.853-1.829-4.485-2.836-7.413-2.836-1.584 0-3.122.363-4.5 1.054a11.867 11.867 0 00-7.06-7.026l-.64 1.762a9.985 9.985 0 015.342 4.598 10.159 10.159 0 00-2.789-.387c-3.42 0-6.339 1.329-8.218 3.742l1.48 1.152c1.516-1.947 3.909-3.02 6.738-3.02zm0 24.514c.67 0 1.368-.161 2.078-.478a6.68 6.68 0 012.746-.588c.95 0 1.874.198 2.745.588.71.317 1.408.478 2.078.478 3.838 0 7.53-3.516 9.404-8.956l-1.772-.611c-1.586 4.6-4.653 7.691-7.632 7.691-.41 0-.839-.102-1.312-.314a8.553 8.553 0 00-3.511-.751 8.55 8.55 0 00-3.512.75c-.474.212-.903.315-1.312.315-4.772 0-8.614-7.312-8.614-13.367 0-1.839.335-3.463.995-4.828l-1.688-.817c-.784 1.622-1.182 3.521-1.182 5.645 0 3.524 1.073 7.238 2.943 10.193 2.062 3.256 4.742 5.05 7.546 5.05zm10.72-30.307c3.481-1.631 8.45-.598 10.534-.043-.486 1.05-1.4 2.828-2.688 4.507l1.488 1.141c2.151-2.803 3.308-5.788 3.356-5.914l.349-.91-.921-.313c-.314-.107-7.739-2.59-12.913-.167a9.262 9.262 0 00-3.09 2.361l1.418 1.226a7.393 7.393 0 012.467-1.888zM23.524.181A11.969 11.969 0 0021.5 0l-.008 1.875c.573.002 1.147.054 1.705.152l.327-1.846z" fill="#F1B08D"/><path d="M30 55.52h1.875v1.875H30V55.52zm-3.75 0h1.875v1.875H26.25V55.52zm21.375-17.207H49.5v1.874h-1.875v-1.874zm0 3.75H49.5v1.874h-1.875v-1.874zM20.663 17.826h1.875c0-2.234.618-3.808 1.837-4.678l-1.09-1.526c-1.74 1.243-2.622 3.33-2.622 6.204zm5.103-5.318a6.32 6.32 0 011.615-.203l-.005-1.875a8.202 8.202 0 00-2.097.267l.487 1.81zm11.336 14.934l.112 1.872c.726-.044 1.47-.368 2.211-.964l-1.173-1.462c-.421.338-.83.535-1.15.554zm6.686-9.616h-1.875c0 3.307-1.313 6.233-2.542 7.868l1.5 1.126c1.799-2.396 2.917-5.842 2.917-8.994z" fill="#F1B08D"/></svg>
